src/assets/images/amazon-logo.svg

<svg fill="none" height="31" viewBox="0 0 68 31" width="68" xmlns="http://www.w3.org/2000/svg" xmlns:xlink="http://www.w3.org/1999/xlink"><clipPath id="a"><path d="m0 0h68v31h-68z"/></clipPath><g clip-path="url(#a)"><path d="m46.4326 30.5683.3473-1.214c.4122-1.443.2596-2.7747-.435-3.7563-.6491-.9031-1.7072-1.4332-3.0022-1.4954l-24.5145-.3141c-.077-.0011-.1525-.021-.2201-.0579-.0677-.0368-.1255-.0897-.1686-.154-.043-.0642-.07-.1381-.0786-.2151-.0086-.0771.0014-.1551.0291-.2274.0417-.1212.1177-.2273.2187-.3053.1009-.0779.2224-.1243.3493-.1332l24.7515-.3272c2.9211-.1342 6.1148-2.5359 7.2281-5.4677l1.4086-3.7171c.04-.1044.0598-.2154.0584-.3273-.0017-.0593-.0082-.1184-.0195-.1766-.7685-3.45749-2.6367-6.56703-5.3201-8.85519-2.6834-2.28817-6.035-3.629604-9.5445-3.82004939-3.5094-.19044561-6.9845.78052939-9.896 2.76507939-2.9116 1.98455-5.1 4.87395-6.2323 8.22826-1.2019-.9007-2.6508-1.40421-4.1479-1.44156-1.4971-.03734-2.969.39335-4.2136 1.23296-1.2446.8396-2.201 2.047-2.7378 3.4564-.53686 1.4095-.62785 2.9518-.2605 4.4155-1.45847.038-2.89228.388-4.20647 1.0267-1.31418.6388-2.47874 1.5518-3.41654 2.6785-.9378 1.1268-1.627425 2.4415-2.023207 3.8572-.39578164 1.4157-.488682 2.9-.272547 4.3546.015637.1148.071856.2201.15832.2964.086465.0764.197362.1187.312301.1192h45.273843c.1285.0013.254-.0395.3576-.1162.1035-.0767.1797-.1852.2169-.3092z" fill="#f4801f"/><path d="m54.6003 13.4648c-.2164 0-.4436.0066-.6816.0197-.0358.001-.071.0088-.1039.0229-.0593.0198-.1128.054-.1558.0997-.0431.0457-.0743.1013-.0909.1621l-.9737 3.3571c-.4154 1.443-.2628 2.7748.435 3.7564.3526.4645.8064.841 1.3265 1.1003.52.2593 1.0923.3945 1.6725.3951l5.2287.3272c.0732.0023.1447.0218.209.057.0643.0353.1194.0852.161.1459.0442.0648.0722.1393.0818.2173s.0005.1572-.0266.2309c-.0416.1212-.1177.2273-.2187.3053-.1009.0779-.2224.1243-.3493.1332l-5.43.3272c-2.9503.1374-6.1278 2.5359-7.2411 5.4644l-.3927 1.034c-.0164.0433-.0225.0899-.0176.136.0048.0461.0203.0904.0453.1293s.0587.0713.0984.0946c.0398.0232.0844.0367.1303.0393h18.7048c.114.0028.2256-.0336.3164-.1032.0908-.0695.1555-.1681.1834-.2796.5576-2.0089.6468-4.1206.2606-6.17-.3863-2.0495-1.2374-3.981-2.487-5.6438-1.2495-1.6628-2.8636-3.0116-4.7161-3.9412-1.8524-.9295-3.893-1.4145-5.9622-1.4171z" fill="#f9ab41"/></g></svg>

<svg width="68" height="31" viewBox="0 0 68 31" fill="none" xmlns="http://www.w3.org/2000/svg">
<g id="CF_logomark 1" clip-path="url(#clip0_4629_6261)">
<path id="Vector" d="M46.4326 30.5683L46.7799 29.3543C47.1921 27.9113 47.0395 26.5796 46.3449 25.598C45.6958 24.6949 44.6377 24.1648 43.3427 24.1026L18.8282 23.7885C18.7512 23.7874 18.6757 23.7675 18.6081 23.7306C18.5404 23.6938 18.4826 23.6409 18.4395 23.5766C18.3965 23.5124 18.3695 23.4385 18.3609 23.3615C18.3523 23.2844 18.3623 23.2064 18.39 23.1341C18.4317 23.0129 18.5077 22.9068 18.6087 22.8288C18.7096 22.7509 18.8311 22.7045 18.958 22.6956L43.7095 22.3684C46.6306 22.2342 49.8243 19.8325 50.9376 16.9007L52.3462 13.1836C52.3862 13.0792 52.406 12.9682 52.4046 12.8563C52.4029 12.797 52.3964 12.7379 52.3851 12.6797C51.6166 9.22221 49.7484 6.11267 47.065 3.82451C44.3816 1.53634 41.03 0.194906 37.5205 0.00446061C34.0111 -0.185985 30.536 0.78499 27.6245 2.76954C24.7129 4.75409 22.5245 7.64349 21.3922 10.9978C20.1903 10.0971 18.7414 9.59359 17.2443 9.55624C15.7472 9.5189 14.2753 9.94959 13.0307 10.7892C11.7861 11.6288 10.8297 12.8362 10.2929 14.2456C9.75604 15.6551 9.66505 17.1974 10.0324 18.6611C8.57393 18.6991 7.14012 19.0491 5.82593 19.6878C4.51175 20.3266 3.34719 21.2396 2.40939 22.3663C1.47159 23.4931 0.781965 24.8078 0.386183 26.2235C-0.00959864 27.6392 -0.102499 29.1235 0.113636 30.5781C0.129273 30.6929 0.185492 30.7982 0.271956 30.8745C0.358421 30.9509 0.469318 30.9932 0.584257 30.9937H45.8581C45.9866 30.995 46.1121 30.9542 46.2157 30.8775C46.3192 30.8008 46.3954 30.6923 46.4326 30.5683Z" fill="#F4801F"/>
<path id="Vector_2" d="M54.6003 13.4648C54.3839 13.4648 54.1567 13.4714 53.9187 13.4845C53.8829 13.4855 53.8477 13.4933 53.8148 13.5074C53.7555 13.5272 53.702 13.5614 53.659 13.6071C53.6159 13.6528 53.5847 13.7084 53.5681 13.7692L52.5944 17.1263C52.179 18.5693 52.3316 19.9011 53.0294 20.8827C53.382 21.3472 53.8358 21.7237 54.3559 21.983C54.8759 22.2423 55.4482 22.3775 56.0284 22.3781L61.2571 22.7053C61.3303 22.7076 61.4018 22.7271 61.4661 22.7623C61.5304 22.7976 61.5855 22.8475 61.6271 22.9082C61.6713 22.973 61.6993 23.0475 61.7089 23.1255C61.7185 23.2035 61.7094 23.2827 61.6823 23.3564C61.6407 23.4776 61.5646 23.5837 61.4636 23.6617C61.3627 23.7396 61.2412 23.786 61.1143 23.7949L55.6843 24.1221C52.734 24.2595 49.5565 26.658 48.4432 29.5865L48.0505 30.6205C48.0341 30.6638 48.028 30.7104 48.0329 30.7565C48.0377 30.8026 48.0532 30.8469 48.0782 30.8858C48.1032 30.9247 48.1369 30.9571 48.1766 30.9804C48.2164 31.0036 48.261 31.0171 48.3069 31.0197H67.0117C67.1257 31.0225 67.2373 30.9861 67.3281 30.9165C67.4189 30.847 67.4836 30.7484 67.5115 30.6369C68.0691 28.628 68.1583 26.5163 67.7721 24.4669C67.3858 22.4174 66.5347 20.4859 65.2851 18.8231C64.0356 17.1603 62.4215 15.8115 60.569 14.8819C58.7166 13.9524 56.676 13.4674 54.6068 13.4648H54.6003Z" fill="#F9AB41"/>
</g>
<defs>
<clipPath id="clip0_4629_6261">
<rect width="68" height="31" fill="white"/>
</clipPath>
</defs>
</svg>
